X:40
T: ES WAR EIN JAEGER DER BLIES INS HORN
N: E0019F
O: Europa, Mitteleuropa, Deutschland, Siebengebirge
R: Sage, Maerchen -, Zauber - Lied
M: 6/8
L: 1/8
K: Bb
F | B2BBBB | c2cc3 |
Bcde2d | c2z3
F | c2ccde | dcdB3 |
BcdBcd | c2FF3 |
dddc2c | B2z3

@@@ Tune index: 3690
